public/img/decorations/deco-lines-2.svg

<svg width="112" height="147" viewBox="0 0 112 147" fill="none" xmlns="http://www.w3.org/2000/svg">
<path d="M105.918 145.582C102.557 147.341 99.7192 147.135 97.2752 144.881C95.7962 145.108 94.5052 145.509 93.2322 145.456C90.7912 145.355 89.5462 144.135 89.3842 141.766C89.2302 139.516 89.2182 137.25 89.2652 134.995C89.3432 131.273 89.5212 127.554 89.6462 123.832C89.6732 123.042 89.6502 122.251 89.6502 121.504C88.3202 120.241 87.0452 119.116 85.8802 117.887C85.3602 117.336 84.8182 116.609 84.7122 115.899C84.3602 113.55 84.0232 111.175 84.0012 108.808C83.8922 96.976 84.0112 85.141 83.8042 73.312C83.6012 61.741 82.5742 50.23 80.0932 38.895C79.4702 36.042 78.6302 33.238 77.9412 30.4C77.7612 29.657 77.7692 28.868 77.6992 28.175C81.3872 26.105 81.9162 26.537 85.2752 28.529C87.8282 30.044 89.0192 32.123 89.9572 34.576C90.5682 36.174 91.5622 37.245 93.0332 38.056C95.5762 39.46 98.0172 41.052 100.59 42.401C101.488 42.873 102.125 43.378 102.436 44.312C103.571 47.712 104.733 51.104 105.825 54.518C106.583 56.892 106.421 59.507 108.011 61.699C108.54 62.428 108.197 63.749 108.384 64.775C108.741 66.731 109.349 68.652 109.575 70.619C110.214 76.146 110.804 81.671 111.124 87.243C111.589 95.331 111.798 103.416 111.913 111.509C111.944 113.763 111.876 116.029 111.683 118.275C111.195 123.958 110.621 129.633 110.052 135.308C109.988 135.96 109.927 136.767 109.534 137.206C107.408 139.588 107.096 142.736 105.918 145.582Z" fill="black"/>
<path d="M22.084 124.248C20.867 125.632 21.09 127.162 20.846 128.58C20.241 132.074 16.096 133.722 13.166 131.691C12.105 130.957 11.494 130.008 11.391 128.742C11.338 128.081 11.33 127.413 11.35 126.75C11.584 118.791 11.893 110.833 12.038 102.873C12.091 99.982 12.067 97.105 10.974 94.257C10.183 92.198 10.021 89.845 9.869 87.603C9.525 82.566 9.35503 77.517 9.12703 72.472C8.79903 65.173 8.46701 57.873 8.17201 50.573C8.10201 48.803 7.68202 47.138 6.81102 45.626C5.55302 43.442 4.19602 41.317 2.87302 39.173C1.97302 37.716 1.05901 36.269 0.187012 34.876C1.50901 31.249 4.251 32.453 6.83 32.645C6.928 31.814 7.11901 31.062 7.08601 30.32C6.92401 26.737 6.76401 23.151 6.48201 19.576C6.14801 15.348 5.69302 11.131 5.28902 6.90799C5.22502 6.24799 5.07202 5.58798 5.08202 4.92898C5.10202 3.64298 4.59001 1.977 6.06801 1.341C7.84701 0.574002 9.87503 -0.0789874 11.601 1.62701C12.591 2.60501 13.79 2.95101 15.087 3.35101C18.464 4.39301 21.347 6.169 22.413 9.866C23.108 12.276 23.737 14.707 24.395 17.129C24.637 18.024 24.737 18.987 25.137 19.806C26.703 23.011 26.705 26.416 26.662 29.86C26.564 37.422 26.939 44.965 27.758 52.486C27.815 53.008 27.946 53.617 27.752 54.057C26.305 57.332 27.272 60.795 26.938 64.154C26.663 66.903 26.709 69.675 27.178 72.471C27.518 74.498 27.539 76.66 26.873 78.78C26.494 79.992 26.654 81.412 26.74 82.728C27.199 89.75 27.674 96.773 28.217 103.79C28.617 108.959 28.295 114.128 28.362 119.296C28.401 122.267 27.292 123.49 24.223 124.028C23.838 124.096 23.426 124.002 23.032 124.028C22.771 124.042 22.518 124.143 22.084 124.248Z" fill="black"/>
<path d="M57.553 126.904C56.631 127.231 55.768 127.554 54.895 127.844C52.151 128.755 50.145 127.373 49.059 125.099C48.61 124.159 48.43 123.089 48.096 121.971C47.282 121.835 46.502 121.739 45.737 121.573C43.315 121.047 41.966 119.57 42.096 117.135C42.26 114.089 42.709 111.059 43.004 108.018C43.733 100.488 44.451 92.957 45.158 85.425C45.381 83.051 45.66 80.676 45.734 78.295C46.103 66.57 44.591 54.968 43.406 43.343C42.609 35.547 41.912 27.74 41.072 19.949C40.76 17.055 40.148 14.194 39.709 11.312C39.434 9.49597 38.934 7.67097 39.641 5.73797C41.844 4.66497 43.914 4.67596 45.912 6.28896C46.834 7.03396 47.85 7.66397 48.951 8.43597C49.709 10.674 50.025 13.261 51.961 15.093C53.127 18.893 54.4 22.664 55.42 26.503C56.061 28.916 56.32 31.431 56.742 33.857C57.859 34.504 58.123 33.346 58.715 32.995C60.453 31.96 62.069 31.607 63.844 32.989C64.768 33.707 65.93 34.12 67.078 34.719C67.078 37.275 67.156 39.893 67.06 42.504C66.894 47.011 66.615 51.514 66.394 56.018C66.146 61.053 66.165 66.118 65.609 71.118C64.539 80.728 63.945 90.369 63.441 100.013C63.101 106.518 62.621 112.998 61.867 119.464C61.709 120.821 61.555 122.038 59.935 122.582C59.304 122.793 58.775 123.619 58.429 124.284C58.012 125.084 57.838 126.011 57.553 126.904Z" fill="black"/>
</svg>

<svg width="112" height="147" fill="none" xmlns="http://www.w3.org/2000/svg"><path d="M105.918 145.582c-3.361 1.759-6.199 1.553-8.643-.701-1.479.227-2.77.628-4.043.575-2.44-.101-3.686-1.321-3.848-3.69-.154-2.25-.166-4.516-.119-6.771.078-3.722.256-7.441.381-11.163.027-.79.004-1.581.004-2.328-1.33-1.263-2.605-2.388-3.77-3.617-.52-.551-1.062-1.278-1.168-1.988-.352-2.349-.689-4.724-.71-7.091-.11-11.832.01-23.667-.198-35.496-.203-11.571-1.23-23.082-3.71-34.417-.624-2.853-1.464-5.657-2.153-8.495-.18-.743-.172-1.532-.242-2.225 3.688-2.07 4.217-1.638 7.576.354 2.553 1.515 3.744 3.594 4.682 6.047.611 1.598 1.605 2.669 3.076 3.48 2.543 1.404 4.984 2.996 7.557 4.345.898.472 1.535.977 1.846 1.911 1.135 3.4 2.297 6.792 3.389 10.206.758 2.374.596 4.989 2.186 7.181.529.729.186 2.05.373 3.076.357 1.956.965 3.877 1.191 5.844.639 5.527 1.229 11.052 1.549 16.624.465 8.088.674 16.173.789 24.266a68.2 68.2 0 01-.23 6.766c-.488 5.683-1.062 11.358-1.631 17.033-.064.652-.125 1.459-.518 1.898-2.126 2.382-2.438 5.53-3.616 8.376zm-83.834-21.334c-1.217 1.384-.994 2.914-1.238 4.332-.605 3.494-4.75 5.142-7.68 3.111-1.061-.734-1.672-1.683-1.775-2.949a18.134 18.134 0 01-.041-1.992c.234-7.959.543-15.917.688-23.877.053-2.891.029-5.768-1.064-8.616-.791-2.059-.953-4.412-1.105-6.654-.344-5.037-.514-10.086-.742-15.131-.328-7.299-.66-14.599-.955-21.899-.07-1.77-.49-3.435-1.361-4.947-1.258-2.184-2.615-4.309-3.938-6.453-.9-1.457-1.814-2.904-2.686-4.297 1.322-3.627 4.064-2.423 6.643-2.231.098-.831.289-1.583.256-2.325-.162-3.583-.322-7.169-.604-10.744-.334-4.228-.789-8.445-1.193-12.668-.064-.66-.217-1.32-.207-1.979.02-1.286-.492-2.952.986-3.588 1.779-.767 3.807-1.42 5.533.286.99.978 2.189 1.324 3.486 1.724 3.377 1.042 6.26 2.818 7.326 6.515.695 2.41 1.324 4.841 1.982 7.263.242.895.342 1.858.742 2.677 1.566 3.205 1.568 6.61 1.525 10.054a186.515 186.515 0 001.096 22.626c.057.522.188 1.131-.006 1.571-1.447 3.275-.48 6.738-.814 10.097-.275 2.749-.229 5.521.24 8.317.34 2.027.361 4.189-.305 6.309-.379 1.212-.219 2.632-.133 3.948.459 7.022.934 14.045 1.477 21.062.4 5.169.078 10.338.145 15.506.039 2.971-1.07 4.194-4.139 4.732-.385.068-.797-.026-1.191 0-.261.014-.514.115-.948.22zm35.469 2.656c-.922.327-1.785.65-2.658.94-2.744.911-4.75-.471-5.836-2.745-.449-.94-.629-2.01-.963-3.128-.814-.136-1.594-.232-2.359-.398-2.422-.526-3.771-2.003-3.641-4.438.164-3.046.613-6.076.908-9.117.729-7.53 1.447-15.061 2.154-22.593.223-2.374.502-4.749.576-7.13.369-11.725-1.143-23.327-2.328-34.952-.797-7.796-1.494-15.603-2.334-23.394-.312-2.894-.924-5.755-1.363-8.637-.275-1.816-.775-3.641-.068-5.574 2.203-1.073 4.273-1.062 6.271.551.922.745 1.938 1.375 3.039 2.147.758 2.238 1.074 4.825 3.01 6.657 1.166 3.8 2.439 7.571 3.459 11.41.641 2.413.9 4.928 1.322 7.354 1.117.647 1.381-.511 1.973-.862 1.738-1.035 3.354-1.388 5.129-.006.924.718 2.086 1.131 3.234 1.73 0 2.556.078 5.174-.018 7.785-.166 4.507-.445 9.01-.666 13.514-.248 5.035-.229 10.1-.785 15.1-1.07 9.61-1.664 19.251-2.168 28.895-.34 6.505-.82 12.985-1.574 19.451-.158 1.357-.312 2.574-1.932 3.118-.631.211-1.16 1.037-1.506 1.702-.417.8-.591 1.727-.876 2.62z" fill="#000"/></svg>
